#TITLE Eine Kleine Nachtmusik
#COMPOSER W. A. Mozart
#MAKER P.D.
; Allegro (mov.1) excerpt, mm.1-4 only. Arr. P.D. — OnGen PPMCK sample.

AC T180 K-7
A @2 V12
A O4 L8 g4.dg4.dgdgb>d2 c4.<a>c4.<a>c<af+ad2
C O4 L8 g4.dg4.dg1 a4.f+a4.f+a4f+4d2
